X:1
T:Caligaverunt oculi mei - Aretino
T:#
%%score { 1 | 2 } 3 4
L:1/8
Q:1/4=180
M:4/2
K:C
V:1 treble nm="Soprano I" snm="S"
V:2 treble 
V:3 treble-8 nm="Tenor" snm="T"
V:4 bass nm="Bass" snm="B"
V:1
"^Paolo Aretino\n(1507-1584)""^Caligaverunt oculi mei" c8 d8- | d4 d4 c4 c4 | _B8 A4 A4 | (G8 F8) | %4
w: Ca- li\-|* ga- ve- runt|o- cu- li|me\- *|
 E16 | z8 c8 | c12 c4 | d8 f8- | f8 e8 | e8 e8 | f8 f8 | d8 d8 | =B8 B8 | ^c16 | =c16 | B16 | %16
w: i|a|fle- tu|me\- *|* o:|qui- a|e- lon-|ga- tus|est a|me,|qui|con-|
 d8 d8 | e16 | c16 | B16 || c16 | c16 | d16 | c8 c8 | A8 A8 | B16 ||S d16 | (e12 d4) | c8 B8 | %29
w: so- la-|ba-|tur|me.|Vi-|de-|te,|om- nes|po- pu-|li,|si|est *|do- lor|
 d8 d8 | ^c16 | e12 e4 | d4 B4 c8 | B8 e8- | e8 e8 | d8 B8 | c16 | B16!fine! || d8 f8 | e8 d8 | %40
w: si- mi-|lis|si- cut|do- lor me-|us, si\-|* cut|do- lor|me-|us.|O vos|om- nes,|
 z4 d4 c4 B4 | A4 G4 ^F4 G4 | z4 G4 c8 | d8 e8- | e8 z8 | z4 G4 c8 | d8 e8 | z4 A4 c8 | d8 e8 | %49
w: qui tran- si-|tis per vi- am,|at- ten-|di- te,||at- ten-|di- te,|at- ten-|di- te|
 d6 c2 B8 | A8 z8 | z8 z4 c4 | B4 (A6 G2 G4- | G4 ^F2 E2)"^al Fine" F8 || %54
w: et vi\-de- *|te,|et|vi- de\- * *|* * * te.|
V:2
 G8 _B8- | B4 _B4 A4 A4 | G8 ^F4 F4 | (_B8 A8) | A16 | z8 A8 | A12 A4 | (F4 D4 d8 | d4 ^c2 B2) c8 | %9
w: Ca- li\-|* ga- ve- runt|o- cu- li|me\- *|i|a|fle- tu|me\- * *|* * * o:|
 z8 =c8 | c8 d8 | d8 _B8 | d8 D4 D4 | A16 | A16 | G16 | B16 | c16 | A4 G8 ^F4 | G16 || e16- | e16 | %22
w: qui-|a e-|lon- ga-|tus est a|me,|qui|con-|so-|la-|ba\- * tur|me.|Vi\-||
 f8 f8 | e8 e8 | d12 d4 | d16 || F16 | (G6 F2 E2 D2) (G4- | G4 ^F4) G8 | B8 B8 | A16 | c12 c4 | %32
w: de- te,|m- nes|po- pu-|li,|si|est * * * do\-|* * lor|si- mi-|lis|si- cut|
 B4 G4 A8 | G8 c8- | c4 c4 c8 | B8 (G8- | G4 ^F2 E2 F8) | G16 || z8 A8 | c8 B8 | A8 z4 d4 | %41
w: do- lor me-|us, si\-|* cut do-|lor me\-||us.|O|vos om-|nes, qui|
 c4 B4 A4 G4 | A4 E4 z8 | z8 z4 G4 | c8 d8 | e16 | z4 A4 c8 | d8 e8 | z8 A8 | B6 c2 d8 | %50
w: tran- si- tis per|vi- am,|at-|ten- di-|te,|at- ten-|di- te|at-|ten- di- te|
 d8 (c4 B4) | (A4 F4 G4 A4 | B4 G4) A8- | A16 || %54
w: et vi\- *|de\- * * *|* * te.||
V:3
 E8 G8- | G4 G4 E4 F4 | D8 D4 D4 | d16 | ^c16 | z8 E8 | E12 E4 | D16 | A16 | A8 A8 | A8 F8 | %11
w: Ca- li\-|* ga- ve- runt|o- cu- li|me-|i|a|fle- tu|me-|o:|qui- a|e- lon-|
 _B12 A4 | G12 F4 | E16 | F16 | D16 | G16 | G8 G8 | (E8 C8) | D16 || z8 G8 | G16 | _B16 | %23
w: ga- tus|est a|me,|qui|con-|so-|la- ba-|tur *|me.|Vi-|de-|te,|
 G8 G4 (G4- | G4 ^F2 E2) F8 | G16 || A16 | (c8 G8) | A8 D8 | G8 G8 | E16 | z16 | z16 | z8 G8- | %34
w: om- nes po\-|* * * pu-|li,|si|est *|do- lor|si- mi-|lis|||si\-|
 G4 G4 G8 | G8 (D8- | D8 C8) | D16 || D8 D8 | (C2 D2 E2 F2) G8 | z4 D4 F4 G4 | A2 F2 G4 D4 d4 | %42
w: * cut do-|lor me\-||us.|O vos|om\- * * * nes,|qui tran- si-|tis per vi- am, qui|
 c4 B4 A6 G2 | F8 E8 | z4 C4 F8 | G8 A8 | G4 F4 E8 | D8 z4 A4 | B8 c8 | d8 z8 | z4 D4 F4 G4 | %51
w: tran- si- tis per|vi- am,|at- ten-|di- te|et vi- de-|te, at-|ten- di-|te,|at- ten- di-|
 A8 G4 F4 | E8 D8- | D16 || %54
w: te et vi-|de- te.||
V:4
 C,8 G,,8- | G,,4 G,,4 A,,4 F,,4 | G,,8 D,4 D,4 | (G,,8 D,8) | A,,16 | z8 A,,8 | A,,12 A,,4 | %7
w: Ca- li\-|* ga- ve- runt|o- cu- li|me\- *|i|a|fle- tu|
 _B,,16 | A,,16 | z8 A,,8 | A,,8 _B,,8- | B,,4 !courtesy!_B,,4 G,,8- | G,,4 G,,4 G,,4 G,,4 | %13
w: me-|o:|qui-|a e-|* lon- ga\-|* tus est a|
 A,,16 | F,,16 | G,,16 | G,,16 | C,16 | C,8 A,,8 | G,,16 || C,16 | C,16 | _B,,16 | C,8 C,8 | %24
w: me,|qui|con-|so-|la-|ba- tur|me.|Vi-|de-|te,|om- nes|
 D,8 D,8 | G,,16 || D,16 | (C,12 _B,,4) | A,,8 G,,8 | G,,8 G,,8 | A,,16 | z16 | z16 | z8 C,8- | %34
w: po- pu-|li,|si|est *|do- lor|si- mi-|lis|||si-|
 C,4 C,4 C,8 | G,,16 | A,,16 | G,,16 || z16 | z16 | z16 | z16 | z16 | z16 | z16 | z16 | z16 | z16 | %48
w: * cut do-|lor|me-|us.|||||||||||
 z16 | z16 | z16 | z16 | z16 | z16 || %54
w: ||||||

